Papirus/64x64/apps/qprompt.svg

<svg width="64" height="64" version="1.1" xmlns="http://www.w3.org/2000/svg">
 <path d="m41 59.999999h-18a7.611061 7.611061 21.512533 0 1-5.193166-2.046955l-10.613668-9.90609a6.9036558 6.9036558 66.512536 0 1-2.1931654-5.046955l2.2e-6 -19a7.2426429 7.2426429 112.5 0 1 2.1213205-5.121321l10.757357-10.757358a7.2426388 7.2426388 157.5 0 1 5.12132-2.1213203l18 1.5e-6a7.2426422 7.2426422 22.5 0 1 5.12132 2.1213204l10.75736 10.757358a7.24264 7.24264 67.499998 0 1 2.12132 5.12132v19a6.9036569 6.9036569 113.48747 0 1-2.193166 5.046955l-10.613668 9.90609a7.611061 7.611061 158.48747 0 1-5.193166 2.046955z" style="opacity:.2"/>
 <path d="m41 59h-18a7.611061 7.611061 21.512533 0 1-5.193166-2.046955l-10.613668-9.90609a6.9036558 6.9036558 66.512536 0 1-2.1931654-5.046955l2.2e-6 -19a7.2426429 7.2426429 112.5 0 1 2.1213205-5.121321l10.757357-10.757358a7.2426388 7.2426388 157.5 0 1 5.12132-2.1213204l18 1.6e-6a7.2426422 7.2426422 22.5 0 1 5.12132 2.1213204l10.75736 10.757358a7.24264 7.24264 67.499998 0 1 2.12132 5.12132v19a6.9036569 6.9036569 113.48747 0 1-2.193166 5.046955l-10.613668 9.90609a7.611061 7.611061 158.48747 0 1-5.193166 2.046955z" style="fill:#4f4f4f"/>
 <path d="M 23 5 A 7.2426388 7.2426388 0 0 0 17.878906 7.1210938 L 7.1210938 17.878906 A 7.2426429 7.2426429 0 0 0 5 23 L 5 24 A 7.2426429 7.2426429 0 0 1 7.1210938 18.878906 L 17.878906 8.1210938 A 7.2426389 7.2426389 0 0 1 23 6 L 41 6 A 7.2426423 7.2426423 0 0 1 46.121094 8.1210938 L 56.878906 18.878906 A 7.2426399 7.2426399 0 0 1 59 24 L 59 23 A 7.24264 7.24264 0 0 0 56.878906 17.878906 L 46.121094 7.1210938 A 7.2426422 7.2426422 0 0 0 41 5 L 23 5 z " style="fill:#ffffff;opacity:.1"/>
 <path d="m5.1308594 22a7.2426429 7.2426429 0 0 0-0.1308594 1v2.103516l37.744141 24.74414c0.672501 0.46693 1.546412-0.214092 1.255859-0.978515l-10.275391-24.541016c-0.583287-1.393172-1.89711-2.328125-3.410156-2.328125h-25.183594zm37.730469 6c-2.266289 0-3.422006 1.722886-2.591797 3.863281l1.263672 3.259766c0.83021 2.140395 3.323555 3.865234 5.589844 3.865234h11.015625c0.308991 0 0.595845-0.034893 0.861328-0.095703v-7.933594c-1.089139-1.700523-3.187258-2.958984-5.123047-2.958984h-11.015625z" style="opacity:.1"/>
 <path d="m44 47.869252-10.274471-24.540343c-0.58329-1.393175-1.897135-2.328909-3.410184-2.328909h-26.155342c-1.1380788 9e-3 -1.5915435 1.472199-0.6573067 2.120857l39.242086 25.726057c0.672504 0.46693 1.545771-0.213236 1.255218-0.977662z" style="fill:#17c7e1"/>
 <path d="m42.861062 27h11.016067c2.266296 0 4.759153 1.723139 5.589366 3.86354l1.26465 3.260442c0.830213 2.140401-0.325911 3.863541-2.592207 3.863541h-11.016068c-2.266295 0-4.759153-1.72314-5.589366-3.863541l-1.26465-3.260442c-0.830212-2.140401 0.325913-3.86354 2.592208-3.86354z" style="fill:#2ec27e;stop-color:#000000"/>
 <path d="m4.1601562 21c-0.9192422 0.007269-1.3775212 0.958718-1.0332031 1.667969 0.1760518-0.373613 0.532635-0.66401 1.0332031-0.667969h26.154297c1.513047 0 2.826868 0.934952 3.410156 2.328125l10.179688 24.314453c0.148928-0.207573 0.205454-0.48469 0.095703-0.773437l-10.275391-24.541016c-0.583288-1.393173-1.897109-2.328125-3.410156-2.328125h-26.154297zm38.701172 6c-1.967304 0-3.095447 1.298349-2.816406 3.041016 0.21569-1.215924 1.249358-2.041016 2.816406-2.041016h11.015625c2.266292 0 4.759633 1.722884 5.589844 3.863281l1.263672 3.259766c0.109498 0.2823 0.182195 0.557427 0.224609 0.822265 0.095757-0.542375 0.031249-1.162628-0.224609-1.822265l-1.263672-3.259766c-0.830211-2.140397-3.323552-3.863281-5.589844-3.863281h-11.015625z" style="fill:#ffffff;opacity:.2"/>
</svg>

<svg xmlns="http://www.w3.org/2000/svg" width="64" height="64" version="1.1">
 <path style="opacity:0.2" d="M 41,60 H 23 A 7.6111,7.6111 0 0 1 17.807,57.953 L 7.1932,48.047 A 6.9037,6.9037 0 0 1 5,43 V 24 A 7.2426,7.2426 0 0 1 7.1213,18.879 L 17.879,8.1213 A 7.2426,7.2426 0 0 1 23,6 H 41 A 7.2426,7.2426 0 0 1 46.121,8.1213 L 56.879,18.879 A 7.2426,7.2426 0 0 1 59,24 V 43 A 6.9037,6.9037 0 0 1 56.807,48.047 L 46.193,57.953 A 7.6111,7.6111 0 0 1 41,60 Z"/>
 <path style="fill:#4f4f4f" d="M 41,59 H 23 A 7.6111,7.6111 0 0 1 17.807,56.953 L 7.1932,47.047 A 6.9037,6.9037 0 0 1 5,42 V 23 A 7.2426,7.2426 0 0 1 7.1213,17.879 L 17.879,7.1213 A 7.2426,7.2426 0 0 1 23,5 H 41 A 7.2426,7.2426 0 0 1 46.121,7.1213 L 56.879,17.879 A 7.2426,7.2426 0 0 1 59,23 V 42 A 6.9037,6.9037 0 0 1 56.807,47.047 L 46.193,56.953 A 7.6111,7.6111 0 0 1 41,59 Z"/>
 <path style="opacity:0.1;fill:#ffffff" d="M 23,5 A 7.2426,7.2426 0 0 0 17.879,7.1211 L 7.1211,17.879 A 7.2426,7.2426 0 0 0 5,23 V 24 A 7.2426,7.2426 0 0 1 7.1211,18.879 L 17.879,8.1211 A 7.2426,7.2426 0 0 1 23,6 H 41 A 7.2426,7.2426 0 0 1 46.121,8.1211 L 56.879,18.879 A 7.2426,7.2426 0 0 1 59,24 V 23 A 7.2426,7.2426 0 0 0 56.879,17.879 L 46.121,7.1211 A 7.2426,7.2426 0 0 0 41,5 Z"/>
 <path style="opacity:0.1" d="M 5.1309,22 A 7.2426,7.2426 0 0 0 5,23 V 25.104 L 42.744,49.848 C 43.417,50.315 44.291,49.634 44,48.869 L 33.725,24.328 C 33.141,22.935 31.827,22 30.314,22 Z M 42.861,28 C 40.595,28 39.439,29.723 40.27,31.863 L 41.533,35.123 C 42.363,37.263 44.857,38.988 47.123,38.988 H 58.139 C 58.448,38.988 58.735,38.953 59,38.893 V 30.959 C 57.911,29.258 55.813,28 53.877,28 Z"/>
 <path style="fill:#17c7e1" d="M 44,47.869 33.726,23.329 C 33.142,21.936 31.828,21 30.315,21 H 4.16 C 3.0219,21.009 2.5685,22.472 3.5027,23.121 L 42.745,48.847 C 43.417,49.314 44.291,48.634 44,47.869 Z"/>
 <path style="fill:#2ec27e" d="M 42.861,27 H 53.877 C 56.143,27 58.636,28.723 59.466,30.864 L 60.731,34.124 C 61.561,36.264 60.405,37.988 58.139,37.988 H 47.123 C 44.857,37.988 42.364,36.264 41.534,34.124 L 40.269,30.864 C 39.439,28.723 40.595,27 42.861,27 Z"/>
 <path style="opacity:0.2;fill:#ffffff" d="M 4.1602,21 C 3.2409,21.007 2.7826,21.959 3.127,22.668 3.303,22.294 3.6596,22.004 4.1602,22 H 30.314 C 31.828,22 33.141,22.935 33.725,24.328 L 43.904,48.643 C 44.053,48.435 44.11,48.158 44,47.869 L 33.725,23.328 C 33.141,21.935 31.828,21 30.314,21 Z M 42.861,27 C 40.894,27 39.766,28.298 40.045,30.041 40.261,28.825 41.294,28 42.861,28 H 53.877 C 56.143,28 58.637,29.723 59.467,31.863 L 60.73,35.123 C 60.84,35.405 60.913,35.68 60.955,35.945 61.051,35.403 60.986,34.783 60.73,34.123 L 59.467,30.863 C 58.637,28.723 56.143,27 53.877,27 Z"/>
</svg>
